24x24/panel/knemo-modem-error.svg

<svg height="24" width="24" xmlns="http://www.w3.org/2000/svg"><g fill="#ff2a2a"><path d="m14 4.469v2.531h-3v1h4v-1.469l3.564 2.969-.564.563v1.25l2-1.813-5.187-4.375zm-2 6.531v1h2v-1z" opacity=".35"/><path d="m10 8.469-.812.656-5.188 4.375 5.188 4.375.812.656v-2.531h3v-1h-4v1.469l-3.406-2.969 3.406-2.969v1.469h3v-1h-2v-1.5z" opacity=".35"/><path d="m15 10v4l.25 2h1.5l.25-2v-4zm0 7v2h2v-2z"/></g></svg>

<svg width="24" height="24" xmlns="http://www.w3.org/2000/svg"><defs><style id="current-color-scheme" type="text/css"></style></defs><g fill="#ff2a2a"><path d="M14 4.469V7h-3v1h4V6.531L18.564 9.5l-.564.563v1.25L20 9.5l-5.187-4.375zM12 11v1h2v-1z" color="#000" opacity=".35"/><path d="m10 8.469-.812.656L4 13.5l5.188 4.375.812.656V16h3v-1H9v1.469L5.594 13.5 9 10.531V12h3v-1h-2V9.5z" color="#000" opacity=".35"/><path d="M15 10v4l.25 2h1.5l.25-2v-4zm0 7v2h2v-2z" color="#8b9cbe"/></g></svg>
